lib/flags/s/AS.svg

<svg xmlns="http://www.w3.org/2000/svg" fill="none" viewBox="0 0 16 12"><mask id="AS_svg__a" width="16" height="12" x="0" y="0" mask-type="alpha" maskUnits="userSpaceOnUse"><path fill="#fff" d="M0 0H16V12H0z"/></mask><g mask="url(#AS_svg__a)"><path fill="#F7FCFF" fill-rule="evenodd" d="M0 0H16V12H0V0Z" clip-rule="evenodd"/><path fill="#3547A0" stroke="#E31D1C" d="M0 -0.5H-0.5V0V5.6535L-1.424 6L-0.5 6.3465V12V12.5H0H16L16.1756 11.5318L1.424 6L16.1756 0.468165L16 -0.5H0Z"/><path fill="#C44800" fill-rule="evenodd" d="M14.0448 3.01361C14.0448 3.01361 10.0131 4.0604 10.0131 4.22147C10.0131 4.38254 9.65041 4.89289 9.72469 5.02611C9.79897 5.15933 9.99188 5.33589 10.1503 5.24761C10.3087 5.15933 10.685 4.80461 10.5587 5.02611C10.4324 5.24761 11.2377 5.50515 10.8982 5.99432C10.8982 5.99432 11.306 5.75923 11.1086 7.09615L12.0794 7.37284C12.0794 7.37284 13.1637 7.08856 12.6688 6.27502H13.2435C13.2435 6.27502 13.0053 5.22077 13.3573 5.02611C13.7092 4.83145 12.9986 4.6835 12.9986 4.6835C14.501 3.82824 14.0448 3.01361 14.0448 3.01361Z" clip-rule="evenodd"/><path fill="#FFC221" fill-rule="evenodd" d="M13.3774 7.48524L10.9438 7.07394L10.625 6.64728L9.24329 6.92548L10.4562 7.61259L10.8639 7.39315L13.3774 7.79444V7.48524Z" clip-rule="evenodd"/><path fill="#FFC221" fill-rule="evenodd" d="M13.7512 7.85939V7.61829L11.0225 7.45226C11.0225 7.45226 10.858 7.29999 10.4522 7.29999 10.0463 7.29999 10 7.61829 10 7.61829 10 7.61829 10.2327 8.08217 10.6839 8.08217 11.1352 8.08217 11.8369 8.19056 12.0269 8.41367 12.217 8.63679 13.0045 8.29905 13.0045 8.29905 13.0045 8.29905 12.668 7.72025 12.2362 7.90121 11.8045 8.08217 11.0225 7.81356 11.0225 7.71592 11.0225 7.61829 13.7512 7.85939 13.7512 7.85939zM9.14273 5.9071C9.14273 5.9071 8.87821 6.47404 8.97425 6.68841 9.39674 7.12961 10.1648 6.42678 10.1648 6.42678L9.14273 5.9071z" clip-rule="evenodd"/><path fill="#979797" fill-rule="evenodd" d="M13.3138 6.17753C13.5945 6.03316 13.7377 5.76578 13.7377 5.41699C13.7377 5.1485 13.6738 4.93638 13.5324 4.8008V4.61776L13.2847 4.61549C11.0653 4.59512 9.81583 4.81473 9.45369 5.36415C9.08746 5.91976 9.11941 6.39436 9.61788 6.62472L9.8384 6.61943C10.9158 6.05725 12.0123 5.91769 13.1392 6.19783L13.3138 6.17753ZM9.66242 5.50173C9.95484 5.0581 11.1615 4.84601 13.2824 4.86548V4.92853C13.4193 4.99419 13.4877 5.15701 13.4877 5.41699C13.4877 5.67698 13.3916 5.85639 13.1995 5.95521C12.0126 5.66017 10.8537 5.80769 9.72275 6.39778C9.39011 6.24405 9.37 5.94537 9.66242 5.50173Z" clip-rule="evenodd"/><path fill="#F7FCFF" d="M13.2824 4.86549C11.1615 4.84602 9.95484 5.05811 9.66242 5.50174C9.37 5.94538 9.39011 6.24406 9.72275 6.39779C10.8537 5.8077 12.0126 5.66018 13.1995 5.95522C13.3916 5.8564 13.4877 5.67699 13.4877 5.417C13.4877 5.15702 13.4193 4.99419 13.2824 4.92854V4.86549Z"/></g></svg>

<svg xmlns="http://www.w3.org/2000/svg" fill="none" viewBox="0 0 16 12"><mask id="AS_svg__a" width="16" height="12" x="0" y="0" maskUnits="userSpaceOnUse"><path fill="#fff" d="M0 0h16v12H0z"/></mask><g mask="url(#AS_svg__a)"><path fill="#F7FCFF" fill-rule="evenodd" d="M0 0h16v12H0V0z" clip-rule="evenodd"/><path fill="#3547A0" stroke="#E31D1C" d="M0-.5h-.5v6.154L-1.424 6l.924.346V12.5H16l.176-.968L1.424 6 16.176.468 16-.5H0z"/><path fill="#C44800" fill-rule="evenodd" d="M14.045 3.014S10.013 4.06 10.013 4.22c0 .162-.363.672-.288.805.074.133.267.31.425.222.159-.089.535-.443.409-.222-.127.222.679.48.34.968 0 0 .407-.235.21 1.102l.97.277s1.085-.284.59-1.098h.574s-.238-1.054.114-1.249c.352-.195-.358-.342-.358-.342 1.502-.856 1.046-1.67 1.046-1.67z" clip-rule="evenodd"/><path fill="#FFC221" fill-rule="evenodd" d="M13.377 7.485l-2.433-.411-.32-.427-1.38.278 1.212.688.408-.22 2.513.401v-.309z" clip-rule="evenodd"/><path fill="#FFC221" fill-rule="evenodd" d="M13.751 7.86v-.242l-2.728-.166s-.165-.152-.57-.152c-.407 0-.453.318-.453.318s.233.464.684.464c.451 0 1.153.109 1.343.332.19.223.978-.115.978-.115s-.337-.579-.769-.398c-.431.181-1.213-.087-1.213-.185s2.728.143 2.728.143zM9.143 5.907s-.265.567-.169.781c.423.442 1.19-.261 1.19-.261l-1.021-.52z" clip-rule="evenodd"/><path fill="#979797" fill-rule="evenodd" d="M13.314 6.178c.28-.145.424-.412.424-.761 0-.268-.064-.48-.206-.616v-.183l-.247-.003c-2.22-.02-3.47.2-3.831.75-.367.555-.335 1.03.164 1.26l.22-.006c1.078-.562 2.174-.701 3.301-.421l.175-.02zm-3.652-.676c.293-.444 1.5-.656 3.62-.637v.064c.137.065.206.228.206.488s-.096.44-.289.538c-1.186-.295-2.345-.147-3.476.443-.333-.154-.353-.453-.06-.896z" clip-rule="evenodd"/><path fill="#F7FCFF" d="M13.282 4.865c-2.12-.019-3.327.193-3.62.637-.292.443-.272.742.06.896 1.132-.59 2.29-.738 3.477-.443.193-.099.289-.278.289-.538s-.069-.423-.206-.488v-.064z"/></g></svg>
